svg/fluentui-system-icons/ic_fluent_sub_grid_20_regular.svg

<svg width="20" height="20" viewBox="0 0 20 20" fill="none" xmlns="http://www.w3.org/2000/svg">
<path d="M6 3C4.34315 3 3 4.34315 3 6V14C3 15.6569 4.34315 17 6 17H14C15.6569 17 17 15.6569 17 14V6C17 4.34315 15.6569 3 14 3H6ZM4 14V10.5H6V12.5C6 13.3284 6.67157 14 7.5 14H9.5V16H6C4.89543 16 4 15.1046 4 14ZM10.5 14H12.5C13.3284 14 14 13.3284 14 12.5V10.5H16V14C16 15.1046 15.1046 16 14 16H10.5V14ZM13 10.5V12.5C13 12.7761 12.7761 13 12.5 13H10.5V10.5H13ZM14 9.5V7.5C14 6.67157 13.3284 6 12.5 6H10.5V4H14C15.1046 4 16 4.89543 16 6V9.5H14ZM10.5 7H12.5C12.7761 7 13 7.22386 13 7.5V9.5H10.5V7ZM9.5 6H7.5C6.67157 6 6 6.67157 6 7.5V9.5H4V6C4 4.89543 4.89543 4 6 4H9.5V6ZM7 9.5V7.5C7 7.22386 7.22386 7 7.5 7H9.5V9.5H7ZM7 10.5H9.5V13H7.5C7.22386 13 7 12.7761 7 12.5V10.5Z" fill="#212121"/>
</svg>

<svg xmlns="http://www.w3.org/2000/svg" width="20" height="20"><path d="M6 3a3 3 0 0 0-3 3v8a3 3 0 0 0 3 3h8a3 3 0 0 0 3-3V6a3 3 0 0 0-3-3H6ZM4 14v-3.5h2v2A1.5 1.5 0 0 0 7.5 14h2v2H6a2 2 0 0 1-2-2Zm6.5 0h2a1.5 1.5 0 0 0 1.5-1.5v-2h2V14a2 2 0 0 1-2 2h-3.5v-2Zm2.5-3.5v2a.5.5 0 0 1-.5.5h-2v-2.5H13Zm1-1v-2A1.5 1.5 0 0 0 12.5 6h-2V4H14a2 2 0 0 1 2 2v3.5h-2ZM10.5 7h2a.5.5 0 0 1 .5.5v2h-2.5V7Zm-1-1h-2A1.5 1.5 0 0 0 6 7.5v2H4V6a2 2 0 0 1 2-2h3.5v2ZM7 9.5v-2a.5.5 0 0 1 .5-.5h2v2.5H7Zm0 1h2.5V13h-2a.5.5 0 0 1-.5-.5v-2Z"/></svg>
